client/public/assets/icons/action/script.svg

<?xml version="1.0"?><svg xmlns="http://www.w3.org/2000/svg" width="52" height="52" viewBox="0 0 52 52"><path fill="#fff" d="m44 6.8c-8.8 0-15.6 6.9-15.6 15.7v21.1c0 0.8 0.7 1.5 1.5 1.5h16.7c0.8 0 1.5-0.7 1.5-1.5v-16.6c0-0.8-0.7-1.5-1.5-1.5h-12.4v-2.9c0-4.9 4.8-9.8 9.7-9.8h2.6c0.8 0 1.5-0.7 1.5-1.5v-3c0-0.8-0.7-1.5-1.5-1.5h-2.5z m-24.4 0c-8.8 0-15.6 6.9-15.6 15.8v21.1c0 0.8 0.7 1.5 1.5 1.5h16.7c0.8 0 1.5-0.7 1.5-1.5v-16.7c0-0.8-0.7-1.5-1.5-1.5h-12.3v-2.9c0-4.9 4.8-9.8 9.7-9.8h2.6c0.8 0 1.5-0.7 1.5-1.5v-3c0-0.8-0.7-1.5-1.5-1.5h-2.6z"></path><path d="m30.4 8.3"></path></svg>

<?xml version="1.0" encoding="utf-8"?>
<!-- Generator: Adobe Illustrator 21.1.0, SVG Export Plug-In . SVG Version: 6.00 Build 0)  -->
<svg version="1.1" id="Layer_1" xmlns="http://www.w3.org/2000/svg" xmlns:xlink="http://www.w3.org/1999/xlink" x="0px" y="0px"
	 width="52px" height="52px" viewBox="0 0 52 52" enable-background="new 0 0 52 52" xml:space="preserve">
<g>
	<path fill="#FFFFFF" d="M44,6.8c-8.8,0-15.6,6.9-15.6,15.7v21.1c0,0.8,0.7,1.5,1.5,1.5h16.7c0.8,0,1.5-0.7,1.5-1.5V27
		c0-0.8-0.7-1.5-1.5-1.5H34.2v-2.9c0-4.9,4.8-9.8,9.7-9.8h2.6c0.8,0,1.5-0.7,1.5-1.5V8.3c0-0.8-0.7-1.5-1.5-1.5
		C46.5,6.8,44,6.8,44,6.8z M19.6,6.8C10.8,6.8,4,13.7,4,22.6v21.1c0,0.8,0.7,1.5,1.5,1.5h16.7c0.8,0,1.5-0.7,1.5-1.5V27
		c0-0.8-0.7-1.5-1.5-1.5H9.9v-2.9c0-4.9,4.8-9.8,9.7-9.8h2.6c0.8,0,1.5-0.7,1.5-1.5V8.3c0-0.8-0.7-1.5-1.5-1.5H19.6z"/>
</g>
<path d="M30.4,8.3"/>
</svg>
